src/app/assets/svg/analytics.svg

<?xml version="1.0" encoding="UTF-8"?>
<svg width="48px" height="32px" viewBox="0 0 48 32" version="1.1" xmlns="http://www.w3.org/2000/svg" xmlns:xlink="http://www.w3.org/1999/xlink">
    <title>traffic-circle copy</title>
    <defs>
        <polygon id="path-1" points="0 0 48 0 48 32 0 32"></polygon>
    </defs>
    <g id="Page-1" stroke="none" stroke-width="1" fill="none" fill-rule="evenodd">
        <g id="Blue-Sky-Product-Page" transform="translate(-1053.000000, -3154.000000)">
            <g id="traffic-circle-copy" transform="translate(1053.000000, 3154.000000)">
                <g id="traffic-icon" transform="translate(0.000000, -0.000000)">
                    <mask id="mask-2" fill="white">
                        <use xlink:href="#path-1"></use>
                    </mask>
                    <g id="Clip-2"></g>
                    <path d="M48,27.5085221 C48,28.7461154 47.4899515,29.8741871 46.6694387,30.6846465 C45.8489258,31.496201 44.7179487,32 43.4528067,32 L4.54608455,32 C2.02910603,32 0,29.9848039 0,27.5085221 L17.6188496,27.5085221 C17.6188496,28.9213499 18.7941788,29.7548087 20.2245322,29.7548087 L27.4838531,29.7548087 C28.7190575,29.7548087 30.3800416,29.3101513 30.3800416,27.5085221 L48,27.5085221 Z M36.4274428,12.8687795 C36.4274428,13.5916216 35.8286902,14.1830379 35.0968815,14.1830379 C34.3650728,14.1830379 33.7663202,13.5916216 33.7663202,12.8687795 L33.7663202,10.6903963 L24.7074151,18.9472243 L19.3308385,13.7022383 L13.831185,18.9800808 C13.563964,19.2210281 13.2324324,19.352454 12.8986833,19.352454 C12.554955,19.352454 12.2123354,19.210076 11.9451143,18.9472243 C11.4350658,18.4324731 11.4461538,17.5891574 11.9783784,17.0853583 L19.3408177,10.0212198 L24.7628552,15.3111096 L31.6928621,9.01362174 L29.2091476,9.01362174 C28.4784477,9.01362174 27.8796951,8.42220549 27.8796951,7.69936341 C27.8796951,6.97652132 28.4784477,6.38510507 29.2091476,6.38510507 L35.0968815,6.38510507 C35.1855856,6.38510507 35.2742897,6.39605722 35.3641026,6.40700938 C35.5293139,6.43986584 35.6856549,6.50557875 35.8176022,6.60414813 C35.8508663,6.61510028 35.8841303,6.64795674 35.9185031,6.66986104 C35.9728344,6.71366966 36.0282744,6.75747827 36.0726265,6.81333425 C36.1502426,6.8889041 36.2167706,6.97652132 36.2611227,7.0750907 C36.2943867,7.13094668 36.3165627,7.17366007 36.3387387,7.22842084 C36.3941788,7.37079882 36.4274428,7.53508111 36.4274428,7.69936341 L36.4274428,12.8687795 Z M39.7760222,0 L8.21954262,0 C4.89313929,0 2.18877339,2.67232528 2.18877339,5.96892327 L2.18877339,25.7266069 L45.8079002,25.7266069 L45.8079002,5.96892327 C45.8079002,2.67232528 43.1135135,0 39.7760222,0 L39.7760222,0 Z" id="Fill-1" fill="#4273B9" mask="url(#mask-2)"></path>
                </g>
            </g>
        </g>
    </g>
</svg>

<svg xmlns="http://www.w3.org/2000/svg" xmlns:xlink="http://www.w3.org/1999/xlink" width="48" height="32"><defs/><defs><path id="a" d="M0 0h48v32H0z"/></defs><g fill="none" fill-rule="evenodd"><mask id="b" fill="#fff"><use xlink:href="#a"/></mask><path fill="#4273B9" d="M48 27.509a4.46 4.46 0 01-1.33 3.176A4.549 4.549 0 0143.452 32H4.546C2.03 32 0 29.985 0 27.509h17.619c0 1.412 1.175 2.246 2.606 2.246h7.259c1.235 0 2.896-.445 2.896-2.246H48zm-11.573-14.64c0 .723-.598 1.314-1.33 1.314-.732 0-1.33-.591-1.33-1.314V10.69l-9.06 8.257-5.376-5.245-5.5 5.278c-.267.241-.599.372-.932.372-.344 0-.687-.142-.954-.405a1.304 1.304 0 01.033-1.862l7.363-7.064 5.422 5.29 6.93-6.297h-2.484c-.73 0-1.33-.592-1.33-1.315 0-.722.6-1.314 1.33-1.314h5.888c.089 0 .177.011.267.022.165.033.322.099.454.197.033.011.066.044.1.066.055.044.11.087.155.143a.865.865 0 01.188.262c.033.056.056.099.078.153.055.143.088.307.088.471v5.17zM39.776 0H8.22C4.893 0 2.189 2.672 2.189 5.969v19.758h43.619V5.969C45.808 2.672 43.114 0 39.776 0z" mask="url(#b)"/></g></svg>
